X:157
T:Boys of Scart, The
T:Boys from Scart, The
R:hornpipe
S:Aoife N\'i Chaoimh & Paudie O'Connor on Youtube
Z:id:hn-hornpipe-157
M:C|
L:1/8
K:G
dc | BGBd BGBd | gfge dBGB | ecdB cABG | E2A2 A2dc |
BG (3Bcd BG (3Bcd | gfge dBGB | ecdB cABG | D2G2 G2 :|
|: Bc | dg~g2 dg~g2 | dgba gfed | ea~a2 ea~a2 | eaaf gfef |
dg~g2 dg~g2 | dgba gfef | dfaf gfef | g2fa g2 :|

